assets/Man running/Medium-Dark/Flat/man_running_flat_medium-dark.svg

<svg width="32" height="32" viewBox="0 0 32 32" fill="none" xmlns="http://www.w3.org/2000/svg">
<path d="M13.7301 7L14.7801 9.05L12.6801 10.15L11.6301 8.05L13.7301 7Z" fill="#8B5C56"/>
<path d="M12.4752 8.41123C12.9243 8.16904 13.2933 7.81084 13.5402 7.37748L13.8902 6.09393L14.2902 4.76249C14.2875 4.29582 14.0928 3.84899 13.7483 3.519C13.4038 3.18901 12.9374 3.00252 12.4502 3H11.2502C11.0064 3 10.765 3.04615 10.5399 3.1358C10.3148 3.22545 10.1104 3.35684 9.93848 3.52241C9.76656 3.68797 9.6305 3.88446 9.53812 4.10056C9.44573 4.31667 9.39886 4.54813 9.40017 4.78164V5.49996C9.40017 5.49997 9.40018 5.49995 9.40017 5.49996C9.24537 5.78754 9.12796 5.94446 9.04694 6.05273C8.95525 6.17527 8.91016 6.23553 8.91016 6.3525C8.92487 6.46677 8.98292 6.57187 9.07327 6.64782C9.16362 6.72376 9.27996 6.76525 9.40016 6.76438C9.40144 6.76438 9.40271 6.76438 9.40397 6.76436C9.42862 7.90545 9.6135 8.74724 11.0002 8.74724C11.515 8.76984 12.0261 8.65341 12.4752 8.41123Z" fill="#966661"/>
<path d="M18.1058 9.89008C18.2324 9.83686 18.3709 9.81847 18.507 9.8368C18.6431 9.85514 18.7718 9.90954 18.8798 9.99436L21.3028 11.8822C21.3234 12.1937 21.4212 12.586 21.78 12.6099H22.3C22.3 12.6099 22.47 12.9699 22.8 12.8599C23.1006 12.7328 23.3676 12.5377 23.58 12.2899C23.86 11.9599 24.1 11.4199 23.99 11.1499C23.8063 10.8745 23.5681 10.6396 23.29 10.4599L22.59 9.93994L20.3004 8.18555C19.8703 7.84824 19.3559 7.63038 18.8141 7.55739C18.2761 7.48491 17.7285 7.55641 17.2273 7.76446L13.9475 9.06042L14.2363 9.79139L13.8052 9.46289C12.8534 10.712 11.445 11.5326 9.88887 11.7446C8.44014 11.942 6.9736 11.5968 5.7684 10.7824C5.70981 10.4986 5.56892 10.1235 5.2301 9.95992C5.15025 9.90482 5.05272 9.88146 4.95657 9.8944C4.86042 9.90734 4.77254 9.95566 4.7101 10.0299C4.7101 10.0299 4.5201 9.66992 4.1901 9.80992C3.89158 9.96282 3.62908 10.1776 3.4201 10.4399C3.30162 10.6135 3.22466 10.812 3.19518 11.0201C3.16571 11.2282 3.1845 11.4403 3.2501 11.6399C3.395 11.9012 3.5966 12.1268 3.8401 12.2999L4.24425 12.5222C5.95944 13.7711 8.09295 14.3105 10.1993 14.0236C12.353 13.7302 14.303 12.5967 15.6238 10.8711L18.0943 9.89491L18.1058 9.89008Z" fill="#966661"/>
<path d="M17.9201 15.5699L17.4701 15.2799C17.5382 15.4074 17.5955 15.5394 17.6418 15.6745L13.375 19.2734L10.7067 19.2489L10.0501 19.8099C9.57624 20.4992 9.22131 21.2632 9.00015 22.0699L6.90015 27.6899L8.31015 28.6199L11.8701 22.3799L15.6294 19.5033L17.6401 22.3299C17.8674 22.6473 18.1826 22.8912 18.5469 23.0316C18.9111 23.172 19.3085 23.2027 19.6901 23.1199L25.8901 21.7299L25.2801 19.9999L19.8301 20.4799L17.7857 16.4604C17.7771 16.1934 17.7288 15.9285 17.6418 15.6745L17.9201 15.5699Z" fill="#966661"/>
<path d="M27.3635 23.9119L25 21.7981L25.0847 19.9366L26.2292 19.5289C26.3509 19.4851 26.485 19.4913 26.6022 19.5459C26.7195 19.6006 26.8103 19.6994 26.855 19.8208C26.855 19.8208 27.9471 22.8156 28.1183 23.4515C28.1851 23.6661 27.5642 24.0899 27.3635 23.9119Z" fill="#533566"/>
<path d="M4.00016 27.1499H7.19016L8.30016 28.6599L7.76016 29.6599C7.73073 29.7171 7.6901 29.7678 7.64069 29.809C7.59128 29.8502 7.53409 29.8811 7.47252 29.8997C7.41095 29.9184 7.34626 29.9245 7.2823 29.9176C7.21833 29.9108 7.15639 29.8912 7.10016 29.8599C7.10016 29.8599 4.30016 28.3599 3.74016 27.9999C3.56016 27.8799 3.74016 27.1499 4.00016 27.1499Z" fill="#533566"/>
<path d="M14.6401 18.2099L17.1401 21.6499L19.3801 20.2299C19.6416 20.0596 19.8265 19.7942 19.8956 19.4899C19.9647 19.1856 19.9125 18.8664 19.7501 18.5999L17.8201 15.4099L14.6401 18.2099Z" fill="#636363"/>
<path d="M10.707 19.2305L13.2102 21.6999C13.3397 21.8281 13.4954 21.9267 13.6666 21.989C13.8378 22.0512 14.0205 22.0755 14.2021 22.0603C14.3837 22.0451 14.5598 21.9907 14.7183 21.9009C14.8768 21.811 15.0139 21.6879 15.1202 21.5399L17.4102 18.3499C17.4102 18.3499 18.4102 16.9099 18.0602 16.0099C17.9765 15.645 17.8125 15.3034 17.5802 15.0099L12.7402 17.4899" fill="#9B9B9B"/>
<path opacity="0.51" d="M4.79281 10.0423C4.83846 10.0941 4.83349 10.1731 4.7817 10.2188C4.58325 10.3937 4.41135 10.5966 4.27139 10.821C4.24447 10.8932 4.24641 10.9481 4.25844 10.9888C4.27136 11.0324 4.29893 11.0695 4.33517 11.0981C4.37215 11.1272 4.41386 11.144 4.44688 11.1491C4.46367 11.1518 4.47306 11.1509 4.47722 11.1502C4.5742 11.0555 4.66667 10.9563 4.75431 10.853C4.77454 10.817 4.79533 10.7893 4.81474 10.7682C4.91523 10.6586 4.99775 10.6998 5.03538 10.7454C5.07302 10.7909 5.07365 10.8566 5.03688 10.9028C5.01257 10.9334 4.98787 10.9636 4.96278 10.9936C4.9599 10.9995 4.95697 11.0059 4.954 11.0128C4.91647 11.1007 4.87455 11.2748 4.89382 11.5976C4.89793 11.6665 4.8454 11.7257 4.77649 11.7298C4.70758 11.7339 4.64838 11.6814 4.64426 11.6125C4.63818 11.5105 4.63759 11.4199 4.64125 11.3393C4.57237 11.4029 4.47707 11.4069 4.40839 11.3962C4.3311 11.3841 4.24968 11.349 4.18041 11.2944C4.1104 11.2392 4.0486 11.1607 4.01871 11.0597C3.98845 10.9574 3.99376 10.8416 4.04298 10.7186C4.04566 10.7119 4.04891 10.7054 4.0527 10.6993C4.20668 10.4501 4.39662 10.225 4.61638 10.0312C4.64989 10.0017 4.69479 9.99335 4.73468 10.0052C4.75643 10.0116 4.7767 10.0241 4.79281 10.0423Z" fill="#75443E"/>
<path d="M12.74 17.52L17.92 15.57C17.4467 14.7133 16.3999 12.6869 15.9993 11.4343C15.9606 9.25221 14.7302 8.69996 14.7302 8.69996C14.3362 8.55681 13.9114 8.52026 13.4987 8.59401C13.0861 8.66776 12.7002 8.84919 12.3802 9.11996C12.0938 9.34395 11.8609 9.62886 11.6983 9.95403C11.6188 10.113 11.5571 10.2797 11.514 10.451L11.51 10.45C11.2049 11.6485 11.1568 12.898 11.3688 14.1165C11.5808 15.335 12.0481 16.4949 12.74 17.52Z" fill="#00A6ED"/>
<path d="M10.5596 6.99141C10.6251 7.01321 10.6605 7.08399 10.6387 7.14949C10.5826 7.31818 10.4622 7.45791 10.3036 7.53833C10.1451 7.61876 9.96117 7.63338 9.7919 7.57903C9.72617 7.55793 9.68999 7.48754 9.7111 7.42181C9.7322 7.35608 9.80259 7.3199 9.86833 7.341C9.9749 7.37522 10.0907 7.36601 10.1905 7.31538C10.2903 7.26474 10.3662 7.17676 10.4015 7.07055C10.4233 7.00505 10.4941 6.96962 10.5596 6.99141Z" fill="#990838"/>
<path d="M9.87013 5.90999C9.85173 5.90872 9.83376 5.90383 9.81725 5.8956C9.80075 5.88737 9.78603 5.87595 9.77395 5.86201C9.76187 5.84807 9.75266 5.83188 9.74686 5.81438C9.74105 5.79687 9.73877 5.77839 9.74013 5.75999V5.75999C9.74271 5.68775 9.7595 5.61672 9.78955 5.55098C9.8196 5.48523 9.86232 5.42605 9.91526 5.37683C9.9682 5.32761 10.0303 5.2893 10.0981 5.2641C10.1658 5.23891 10.2379 5.22732 10.3101 5.22999C10.3824 5.22732 10.4544 5.23891 10.5222 5.2641C10.5899 5.2893 10.6521 5.32761 10.705 5.37683C10.7579 5.42605 10.8007 5.48523 10.8307 5.55098C10.8608 5.61672 10.8775 5.68775 10.8801 5.75999V5.75999C10.8815 5.77839 10.8792 5.79687 10.8734 5.81438C10.8676 5.83188 10.8584 5.84807 10.8463 5.86201C10.8342 5.87595 10.8195 5.88737 10.803 5.8956C10.7865 5.90383 10.7685 5.90872 10.7501 5.90999H9.87013Z" fill="white"/>
<path d="M10.4413 5.91003C10.4518 5.86687 10.4575 5.821 10.4575 5.77344C10.4575 5.51887 10.2956 5.3125 10.0959 5.3125C9.89625 5.3125 9.73438 5.51887 9.73438 5.77344C9.73438 5.821 9.74002 5.86687 9.75051 5.91003H10.4413Z" fill="#7D4533"/>
<path d="M10.2614 5.91003C10.2734 5.87269 10.2801 5.83104 10.2801 5.78711C10.2801 5.62639 10.1903 5.49609 10.0795 5.49609C9.96872 5.49609 9.87891 5.62639 9.87891 5.78711C9.87891 5.83104 9.88562 5.87269 9.89763 5.91003H10.2614Z" fill="#1C1C1C"/>
<path d="M9.91009 5.66999C9.94875 5.66999 9.98009 5.6297 9.98009 5.57999C9.98009 5.53028 9.94875 5.48999 9.91009 5.48999C9.87143 5.48999 9.84009 5.53028 9.84009 5.57999C9.84009 5.6297 9.87143 5.66999 9.91009 5.66999Z" fill="white"/>
<path d="M14.3373 11.2567C13.5371 11.4711 12.7146 10.9962 12.5002 10.196C12.2858 9.39581 12.7607 8.57331 13.5609 8.35889L16.9416 7.45303L17.7181 10.3508L14.3373 11.2567Z" fill="#0092E7"/>
<path d="M9.91592 4.50786C10.0757 4.49121 10.2204 4.50252 10.3457 4.52765C10.436 4.54574 10.5161 4.57096 10.5847 4.59792C10.6726 4.63245 10.7422 4.67007 10.791 4.7C10.8155 4.71499 10.8349 4.72817 10.8491 4.73822C10.8561 4.74325 10.8619 4.74751 10.8662 4.75085L10.8718 4.75515L10.8738 4.75674L10.8747 4.75739C10.9742 4.8377 10.9906 4.98409 10.9102 5.08368C10.8303 5.18276 10.6856 5.19873 10.586 5.1198L10.5802 5.11555C10.5742 5.11123 10.5637 5.10404 10.549 5.09506C10.5211 5.07797 10.4788 5.05482 10.4242 5.03271L10.2452 4.98006C10.1633 4.96451 10.069 4.95772 9.96392 4.96867C9.83667 4.98192 9.72277 4.88951 9.70952 4.76226C9.69626 4.63501 9.78867 4.52111 9.91592 4.50786Z" fill="#372128"/>
<path d="M14.1002 2.45994C14.8402 2.63994 15.2302 3.31994 15.2302 4.03994C15.2302 4.03994 15.2202 4.61994 15.1202 5.12994C15.0702 5.39994 15.0002 5.67994 14.9402 5.91994C14.8602 6.18994 14.7202 6.54994 14.5602 6.76994C14.4202 6.96994 14.1002 7.14994 13.8002 7.18994C13.544 7.21556 13.1055 7.02968 13.0016 6.69457C13.0309 6.67509 13.0589 6.65353 13.0853 6.63001C13.1643 6.55965 13.2275 6.47338 13.2708 6.37685C13.3141 6.28032 13.3365 6.17573 13.3365 6.06995C13.3365 5.96416 13.3141 5.85957 13.2708 5.76304C13.2275 5.66652 13.1643 5.58024 13.0853 5.50988C13.0063 5.43952 12.9133 5.38667 12.8124 5.3548C12.7116 5.32292 12.6051 5.31275 12.5 5.32495V5.33721C12.3134 5.28615 12.1724 5.10599 12.1902 4.90994C12.2202 4.61994 12.0002 4.36994 11.7202 4.35994L9.76023 4.23994C9.75023 4.22994 9.73023 4.22994 9.72023 4.22994C9.30024 4.15994 8.99024 3.78994 9.00024 3.35994C9.01024 2.85994 9.42024 2.47994 9.91024 2.50994C10.0502 2.51994 10.1902 2.44994 10.2802 2.33994C10.4602 2.11994 10.7402 1.97994 11.0502 1.99994C11.1702 2.00994 11.2902 2.03994 11.3902 2.08994C11.6802 2.22994 12.0102 2.24994 12.3102 2.14994C12.4302 2.10994 12.5502 2.09994 12.6702 2.09994C12.8302 2.10994 12.9802 2.15994 13.1102 2.22994C13.2902 2.34994 13.5002 2.40994 13.7202 2.40994C13.8502 2.40994 13.9702 2.42994 14.1002 2.45994Z" fill="#2D242D"/>
</svg>

<svg xmlns="http://www.w3.org/2000/svg" width="32" height="32" fill="none"><path fill="#8B5C56" d="m13.73 7 1.05 2.05-2.1 1.1-1.05-2.1L13.73 7Z"/><path fill="#966661" d="M12.475 8.411c.45-.242.818-.6 1.065-1.034l.35-1.283.4-1.332a1.736 1.736 0 0 0-.542-1.243A1.892 1.892 0 0 0 12.45 3h-1.2a1.92 1.92 0 0 0-.71.136c-.225.09-.43.22-.602.386a1.768 1.768 0 0 0-.4.579c-.092.216-.14.447-.138.68V5.5a3.98 3.98 0 0 1-.353.553c-.092.122-.137.183-.137.3.015.114.073.219.163.295.09.076.207.117.327.116h.004c.025 1.141.21 1.983 1.596 1.983a2.848 2.848 0 0 0 1.475-.336Z"/><path fill="#966661" d="M18.106 9.89a.77.77 0 0 1 .774.104l2.423 1.888c.02.312.118.704.477.728h.52s.17.36.5.25c.3-.127.568-.322.78-.57.28-.33.52-.87.41-1.14a2.42 2.42 0 0 0-.7-.69l-.7-.52-2.29-1.754a3.078 3.078 0 0 0-3.073-.422l-3.28 1.296.29.731-.432-.328a5.93 5.93 0 0 1-8.037 1.32c-.058-.284-.2-.66-.538-.823a.39.39 0 0 0-.52.07s-.19-.36-.52-.22a2.36 2.36 0 0 0-.77.63 1.37 1.37 0 0 0-.17 1.2 2 2 0 0 0 .59.66l.404.222a8.23 8.23 0 0 0 11.38-1.65l2.47-.977.012-.005ZM17.92 15.57l-.45-.29c.068.127.126.26.172.395l-4.267 3.598-2.668-.024-.657.56A7.481 7.481 0 0 0 9 22.07l-2.1 5.62 1.41.93 3.56-6.24 3.76-2.876 2.01 2.827a2 2 0 0 0 2.05.79l6.2-1.39-.61-1.73-5.45.48-2.044-4.02a2.693 2.693 0 0 0-.144-.786l.278-.104Z"/><path fill="#533566" d="M27.363 23.912 25 21.798l.085-1.861 1.144-.408a.49.49 0 0 1 .626.292s1.092 2.995 1.263 3.63c.067.215-.554.639-.755.46ZM4 27.15h3.19l1.11 1.51-.54 1a.48.48 0 0 1-.66.2S4.3 28.36 3.74 28c-.18-.12 0-.85.26-.85Z"/><path fill="#636363" d="m14.64 18.21 2.5 3.44 2.24-1.42a1.2 1.2 0 0 0 .37-1.63l-1.93-3.19-3.18 2.8Z"/><path fill="#9B9B9B" d="m10.707 19.23 2.503 2.47a1.262 1.262 0 0 0 1.91-.16l2.29-3.19s1-1.44.65-2.34a2.519 2.519 0 0 0-.48-1l-4.84 2.48"/><path fill="#75443E" d="M4.793 10.042c.045.052.04.131-.011.177-.199.175-.37.378-.51.602a.26.26 0 0 0-.014.168.22.22 0 0 0 .077.11c.037.028.079.045.112.05a.095.095 0 0 0 .03.001c.097-.095.19-.194.277-.297a.45.45 0 0 1 .06-.085c.101-.11.184-.068.221-.023a.125.125 0 0 1 .002.158l-.074.09a.444.444 0 0 0-.009.02c-.038.088-.08.262-.06.585a.125.125 0 0 1-.25.014 2.61 2.61 0 0 1-.003-.273c-.069.064-.164.068-.233.057a.501.501 0 0 1-.39-.336.514.514 0 0 1 .035-.36c.154-.25.344-.475.563-.669a.125.125 0 0 1 .177.011Z" opacity=".51"/><path fill="#00A6ED" d="m12.74 17.52 5.18-1.95c-.473-.857-1.52-2.883-1.92-4.136-.04-2.182-1.27-2.734-1.27-2.734a2.38 2.38 0 0 0-2.35.42 2.45 2.45 0 0 0-.866 1.331l-.004-.001a8.77 8.77 0 0 0 1.23 7.07Z"/><path fill="#990838" d="M10.56 6.991c.065.022.1.093.079.158a.675.675 0 0 1-.847.43.125.125 0 1 1 .076-.238.425.425 0 0 0 .534-.27.125.125 0 0 1 .158-.08Z"/><path fill="#fff" d="M9.87 5.91a.14.14 0 0 1-.13-.15.55.55 0 0 1 .57-.53.55.55 0 0 1 .57.53.14.14 0 0 1-.13.15h-.88Z"/><path fill="#7D4533" d="M10.441 5.91a.578.578 0 0 0 .016-.137c0-.254-.161-.46-.361-.46-.2 0-.362.206-.362.46 0 .048.006.094.017.137h.69Z"/><path fill="#1C1C1C" d="M10.261 5.91a.403.403 0 0 0 .02-.123c0-.16-.09-.29-.202-.29-.11 0-.2.13-.2.29 0 .044.007.086.019.123h.363Z"/><path fill="#fff" d="M9.91 5.67c.039 0 .07-.04.07-.09 0-.05-.031-.09-.07-.09-.039 0-.07.04-.07.09 0 .05.031.09.07.09Z"/><path fill="#0092E7" d="M14.337 11.257a1.5 1.5 0 0 1-.776-2.898l3.38-.906.777 2.898-3.38.906Z"/><path fill="#372128" d="M9.916 4.508a1.428 1.428 0 0 1 .875.192 1.036 1.036 0 0 1 .075.05l.006.005.002.002a.232.232 0 0 1-.289.362l-.005-.003a.856.856 0 0 0-.156-.083l-.179-.053a.965.965 0 0 0-.281-.011.232.232 0 0 1-.048-.461Z"/><path fill="#2D242D" d="M14.1 2.46c.74.18 1.13.86 1.13 1.58 0 0-.01.58-.11 1.09-.05.27-.12.55-.18.79-.08.27-.22.63-.38.85-.14.2-.46.38-.76.42-.256.026-.695-.16-.798-.495a.75.75 0 0 0-.502-1.37v.012a.417.417 0 0 1-.31-.427.496.496 0 0 0-.47-.55l-1.96-.12c-.01-.01-.03-.01-.04-.01A.863.863 0 0 1 9 3.36c.01-.5.42-.88.91-.85.14.01.28-.06.37-.17a.919.919 0 0 1 1.11-.25c.29.14.62.16.92.06.12-.04.24-.05.36-.05.16.01.31.06.44.13.18.12.39.18.61.18.13 0 .25.02.38.05Z"/></svg>
